fs/text_column_three_20_regular.svg

<svg viewBox="0 0 20 20" fill="none" xmlns="http://www.w3.org/2000/svg" height="1em" width="1em">
  <path d="M12 5.5C12 5.22386 11.7761 5 11.5 5H8.5C8.22386 5 8 5.22386 8 5.5C8 5.77614 8.22386 6 8.5 6H11.5C11.7761 6 12 5.77614 12 5.5ZM17 5.5C17 5.22386 16.7761 5 16.5 5H13.5C13.2239 5 13 5.22386 13 5.5C13 5.77614 13.2239 6 13.5 6H16.5C16.7761 6 17 5.77614 17 5.5ZM7 5.5C7 5.22386 6.77614 5 6.5 5H3.5C3.22386 5 3 5.22386 3 5.5C3 5.77614 3.22386 6 3.5 6H6.5C6.77614 6 7 5.77614 7 5.5ZM12 8.5C12 8.22386 11.7761 8 11.5 8H8.5C8.22386 8 8 8.22386 8 8.5C8 8.77614 8.22386 9 8.5 9H11.5C11.7761 9 12 8.77614 12 8.5ZM17 8.5C17 8.22386 16.7761 8 16.5 8H13.5C13.2239 8 13 8.22386 13 8.5C13 8.77614 13.2239 9 13.5 9H16.5C16.7761 9 17 8.77614 17 8.5ZM7 8.5C7 8.22386 6.77614 8 6.5 8H3.5C3.22386 8 3 8.22386 3 8.5C3 8.77614 3.22386 9 3.5 9H6.5C6.77614 9 7 8.77614 7 8.5ZM12 11.5C12 11.2239 11.7761 11 11.5 11H8.5C8.22386 11 8 11.2239 8 11.5C8 11.7761 8.22386 12 8.5 12H11.5C11.7761 12 12 11.7761 12 11.5ZM17 11.5C17 11.2239 16.7761 11 16.5 11H13.5C13.2239 11 13 11.2239 13 11.5C13 11.7761 13.2239 12 13.5 12H16.5C16.7761 12 17 11.7761 17 11.5ZM7 11.5C7 11.2239 6.77614 11 6.5 11H3.5C3.22386 11 3 11.2239 3 11.5C3 11.7761 3.22386 12 3.5 12H6.5C6.77614 12 7 11.7761 7 11.5ZM12 14.5C12 14.2239 11.7761 14 11.5 14H8.5C8.22386 14 8 14.2239 8 14.5C8 14.7761 8.22386 15 8.5 15H11.5C11.7761 15 12 14.7761 12 14.5ZM17 14.5C17 14.2239 16.7761 14 16.5 14H13.5C13.2239 14 13 14.2239 13 14.5C13 14.7761 13.2239 15 13.5 15H16.5C16.7761 15 17 14.7761 17 14.5ZM7 14.5C7 14.2239 6.77614 14 6.5 14H3.5C3.22386 14 3 14.2239 3 14.5C3 14.7761 3.22386 15 3.5 15H6.5C6.77614 15 7 14.7761 7 14.5Z" fill="#212121"/>
</svg>

<svg viewBox="0 0 20 20" fill="none" xmlns="http://www.w3.org/2000/svg" height="1em" width="1em">
  <path d="M12 5.5a.5.5 0 0 0-.5-.5h-3a.5.5 0 0 0 0 1h3a.5.5 0 0 0 .5-.5Zm5 0a.5.5 0 0 0-.5-.5h-3a.5.5 0 0 0 0 1h3a.5.5 0 0 0 .5-.5Zm-10 0a.5.5 0 0 0-.5-.5h-3a.5.5 0 0 0 0 1h3a.5.5 0 0 0 .5-.5Zm5 3a.5.5 0 0 0-.5-.5h-3a.5.5 0 0 0 0 1h3a.5.5 0 0 0 .5-.5Zm5 0a.5.5 0 0 0-.5-.5h-3a.5.5 0 0 0 0 1h3a.5.5 0 0 0 .5-.5Zm-10 0a.5.5 0 0 0-.5-.5h-3a.5.5 0 0 0 0 1h3a.5.5 0 0 0 .5-.5Zm5 3a.5.5 0 0 0-.5-.5h-3a.5.5 0 0 0 0 1h3a.5.5 0 0 0 .5-.5Zm5 0a.5.5 0 0 0-.5-.5h-3a.5.5 0 0 0 0 1h3a.5.5 0 0 0 .5-.5Zm-10 0a.5.5 0 0 0-.5-.5h-3a.5.5 0 0 0 0 1h3a.5.5 0 0 0 .5-.5Zm5 3a.5.5 0 0 0-.5-.5h-3a.5.5 0 0 0 0 1h3a.5.5 0 0 0 .5-.5Zm5 0a.5.5 0 0 0-.5-.5h-3a.5.5 0 0 0 0 1h3a.5.5 0 0 0 .5-.5Zm-10 0a.5.5 0 0 0-.5-.5h-3a.5.5 0 0 0 0 1h3a.5.5 0 0 0 .5-.5Z" fill="#212121"/>
</svg>
